X:1
T:Farewell To Chernobyl
C:Michael Ferrie
M:4/4
L:1/8
R:hornpipe
K:Dmin
D3F ADFA | DFAD GFEC | A,3C EA,CE | A,CEG AGEF |
D3F ADFA | DFAD FAA=B | =BcGc EcGc |1 fedc dcAF :|2 fedc dcAc |:
d2fd gdfd | def/e/d gfec | d2fd gdfd | def/e/d edcA |1
d2fd gdfd | def/e/d gfef | eaaa eggg | effe dcAc :|2
Adfd Adfd | Bdfd Bdfd | cege agfe | g/f/edc dcAF |]
